templates/main/source/images/big/truck.svg

<?xml version="1.0" encoding="utf-8"?>
<svg width="40px" height="40px" viewBox="0 0 40 40" version="1.1" xmlns:xlink="http://www.w3.org/1999/xlink" xmlns="http://www.w3.org/2000/svg">
  <desc>Created with Lunacy</desc>
  <g id="truck">
    <path d="M18.8235 0C29.2195 5.22458e-16 37.6471 8.42758 37.6471 18.8235C37.6471 29.2195 29.2195 37.6471 18.8235 37.6471C8.42758 37.6471 1.30614e-15 29.2195 0 18.8235C-1.30614e-15 8.42758 8.42758 1.8286e-15 18.8235 0Z" transform="translate(1.1764706 1.1764706)" id="Path" fill="#FFFFFF" stroke="none" />
    <path d="M0 20C0 31.0457 8.9543 40 20 40C25.3043 40 30.3914 37.8929 34.1421 34.1421C37.8929 30.3914 40 25.3043 40 20C40 8.9543 31.0457 0 20 0C8.9543 0 0 8.9543 0 20ZM2.35294 20C2.35294 10.2538 10.2538 2.35294 20 2.35294C24.6803 2.35294 29.1689 4.21218 32.4784 7.52165C35.7878 10.8311 37.6471 15.3197 37.6471 20C37.6471 29.7462 29.7462 37.6471 20 37.6471C10.2538 37.6471 2.35294 29.7462 2.35294 20Z" id="Shape" fill="#8C0014" fill-rule="evenodd" stroke="none" />
    <g id="delivery-truck" transform="translate(6.6666665 6.6666665)">
      <g id="delivery-truck">
        <path d="M0 0L26.6667 0L26.6667 26.6667L0 26.6667L0 0Z" id="Rectangle-4" fill="none" stroke="none" />
        <path d="M0.935686 1.18129L0.935686 12.9218C0.935686 13.1393 1.10601 13.3156 1.31621 13.3156L14.1781 13.3156C14.3883 13.3156 14.5587 13.1393 14.5587 12.9219L14.5587 1.18129C14.5587 0.528897 14.0476 0 13.4171 0L2.07725 0C1.44675 0 0.935686 0.528897 0.935686 1.18129ZM26.6667 14.8875L26.6667 16.0822C26.6667 16.2996 26.4963 16.4759 26.2861 16.4759L23.2054 16.4759C22.985 14.9121 21.6844 13.7062 20.1134 13.7062C18.542 13.7062 17.2414 14.9122 17.021 16.4759L10.8175 16.4759C10.7064 15.6876 10.3219 14.9912 9.76458 14.4938L15.6467 14.4938L15.6467 3.23087C15.6467 2.79594 15.9874 2.44334 16.4077 2.44334L20.0001 2.44334C21.0116 2.44334 21.957 2.96327 22.523 3.83074L24.8389 7.38021C25.1786 7.90086 25.3601 8.51471 25.3601 9.14294L25.3601 14.4938L26.2861 14.4938C26.4963 14.4938 26.6667 14.6701 26.6667 14.8875ZM20.9546 4.74804L22.8064 7.47112C22.9839 7.732 22.8036 8.0915 22.4953 8.0915L17.7547 8.0915C17.5445 8.0915 17.3742 7.91525 17.3742 7.69773L17.3742 4.97466C17.3742 4.75719 17.5446 4.58089 17.7547 4.58089L20.6434 4.58089C20.7672 4.58089 20.8833 4.64325 20.9546 4.74804ZM0.380523 14.4938L5.68606 14.4938C5.12871 14.9912 4.74418 15.6876 4.63316 16.4759L0.380523 16.4759C0.17037 16.4759 0 16.2996 0 16.0822L0 14.8875C0 14.6701 0.17037 14.4938 0.380523 14.4938ZM7.72532 19.3939C9.0329 19.3939 10.093 18.297 10.093 16.9439C10.093 15.5907 9.0329 14.4938 7.72532 14.4938C6.41773 14.4938 5.35765 15.5907 5.35765 16.9439C5.35765 18.297 6.41773 19.3939 7.72532 19.3939ZM22.481 16.9439C22.481 18.297 21.4209 19.3939 20.1133 19.3939C18.8057 19.3939 17.7456 18.297 17.7456 16.9439C17.7456 15.5907 18.8057 14.4938 20.1133 14.4938C21.4209 14.4938 22.481 15.5907 22.481 16.9439ZM8.90911 16.9439C8.90911 16.2673 8.37908 15.7188 7.72527 15.7188C7.07146 15.7188 6.54139 16.2673 6.54139 16.9439C6.54139 17.6204 7.07146 18.169 7.72527 18.169C8.37908 18.169 8.90911 17.6204 8.90911 16.9439ZM20.1133 15.7188C20.7671 15.7188 21.2972 16.2673 21.2972 16.9439C21.2972 17.6204 20.7671 18.169 20.1133 18.169C19.4595 18.169 18.9295 17.6204 18.9295 16.9439C18.9295 16.2673 19.4594 15.7188 20.1133 15.7188Z" transform="translate(0 2.9629629)" id="Shape" fill="#8C0014" fill-rule="evenodd" stroke="none" />
      </g>
    </g>
  </g>
</svg>

<svg width="40" height="40" viewBox="0 0 40 40" xmlns:xlink="http://www.w3.org/1999/xlink" xmlns="http://www.w3.org/2000/svg"><g id="truck"><path d="M18.823 0C29.22 0 37.648 8.428 37.648 18.823c0 10.396-8.427 18.824-18.823 18.824S0 29.22 0 18.824 8.428 0 18.823 0z" transform="translate(1.176 1.176)" id="Path" fill="#FFF" stroke="none"/><path d="M0 20c0 11.046 8.954 20 20 20a20 20 0 0020-20C40 8.954 31.046 0 20 0S0 8.954 0 20zm2.353 0c0-9.746 7.9-17.647 17.647-17.647A17.647 17.647 0 0137.647 20c0 9.746-7.9 17.647-17.647 17.647-9.746 0-17.647-7.9-17.647-17.647z" id="Shape" fill="#8C0014" fill-rule="evenodd" stroke="none"/><g id="delivery-truck" transform="translate(6.667 6.667)"><g id="delivery-truck" stroke="none"><path d="M0 0h26.667v26.667H0V0z" id="Rectangle-4" fill="none"/><path d="M.936 1.181v11.74c0 .218.17.395.38.395h12.862c.21 0 .38-.177.38-.394V1.182c0-.653-.51-1.182-1.14-1.182H2.077C1.446 0 .935.529.935 1.181zm25.73 13.706v1.195c0 .218-.17.394-.38.394h-3.08c-.221-1.564-1.522-2.77-3.093-2.77s-2.872 1.206-3.092 2.77h-6.204a3.264 3.264 0 00-1.052-1.982h5.882V3.23c0-.435.34-.788.76-.788H20c1.012 0 1.957.52 2.523 1.388l2.316 3.55c.34.52.521 1.134.521 1.762v5.35h.926c.21 0 .38.177.38.394zm-5.71-10.139l1.851 2.723c.178.261-.002.62-.31.62h-4.741a.387.387 0 01-.38-.393V4.975c0-.218.17-.394.38-.394h2.888c.124 0 .24.062.312.167zM.38 14.494h5.305a3.263 3.263 0 00-1.053 1.982H.381A.387.387 0 010 16.082v-1.195c0-.217.17-.393.38-.393zm7.344 4.9c1.308 0 2.368-1.097 2.368-2.45 0-1.353-1.06-2.45-2.368-2.45-1.307 0-2.367 1.097-2.367 2.45 0 1.353 1.06 2.45 2.367 2.45zm14.756-2.45c0 1.353-1.06 2.45-2.368 2.45-1.307 0-2.367-1.097-2.367-2.45 0-1.353 1.06-2.45 2.367-2.45 1.308 0 2.368 1.097 2.368 2.45zm-13.572 0c0-.677-.53-1.225-1.184-1.225-.654 0-1.184.548-1.184 1.225 0 .676.53 1.225 1.184 1.225.654 0 1.184-.549 1.184-1.225zm11.204-1.225c.654 0 1.184.548 1.184 1.225 0 .676-.53 1.225-1.184 1.225-.654 0-1.183-.549-1.183-1.225 0-.677.53-1.225 1.183-1.225z" transform="translate(0 2.963)" id="Shape" fill="#8C0014" fill-rule="evenodd"/></g></g></g></svg>
